X: 36
T:Haste to the Wedding
M:6/8
L:1/8
R:Double Jig
K:D
A[|:AFA Agf|ede fdB|AFA AdF|GFG EFG|!
AFA Agf|ede fdB|A2g faf|1ded d2A:|2ded d2a|!
|:afa afa|bgb bag|fga agf|gfg efg|!
a3 f3|ede fdB|A2g faf|1ded d2a:|2ded d2A|]!
